X:390
M:C|
L:1/8
K:D
g|f2df aeeg|f2df ecAg|f2df aeeg|fdef d/d/d dg|f2df aeeg|f2df ecAg|
fefg aeeg|fdef d/d/d d||

